public/logos/PD.svg

<?xml version="1.0" encoding="UTF-8"?>
<svg xmlns="http://www.w3.org/2000/svg" xmlns:xlink="http://www.w3.org/1999/xlink" width="170.41pt" height="59pt" viewBox="0 0 170.41 59" version="1.1">
<defs>
<clipPath id="clip1">
  <path d="M 151 10 L 170.410156 10 L 170.410156 47 L 151 47 Z M 151 10 "/>
</clipPath>
</defs>
<g id="surface1">
<path style=" stroke:none;fill-rule:nonzero;fill:rgb(10.725403%,17.240906%,31.036377%);fill-opacity:1;" d="M 15.976562 15.292969 C 9.605469 15.292969 6.164062 20.160156 6.164062 27.9375 C 6.164062 35.785156 9.414062 41.539062 15.90625 41.539062 C 19.484375 41.539062 21.792969 39.71875 23.078125 37.957031 C 24.972656 35.378906 25.390625 31.59375 25.390625 28.414062 C 25.390625 24.832031 25.109375 15.292969 15.976562 15.292969 Z M 0 13.460938 C 0 12.585938 0.277344 10.414062 3.109375 10.414062 C 3.386719 10.414062 4.0625 10.414062 4.742188 10.753906 C 6.285156 11.496094 6.285156 12.789062 6.285156 14.8125 C 8.996094 11.566406 12.382812 10.078125 16.722656 10.078125 C 25.390625 10.078125 31.8125 16.707031 31.8125 28.28125 C 31.8125 36.671875 28.148438 46.546875 17.46875 46.546875 C 11.84375 46.546875 9.203125 44.320312 6.285156 41.742188 L 6.285156 55.886719 C 6.285156 56.769531 6.027344 59 3.109375 59 C 2.570312 59 2.03125 58.867188 1.5625 58.664062 C 0.207031 57.921875 0 56.902344 0 55.886719 L 0 13.460938 "/>
<path style=" stroke:none;fill-rule:nonzero;fill:rgb(10.725403%,17.240906%,31.036377%);fill-opacity:1;" d="M 59.632812 37.882812 C 61.996094 34.839844 62.132812 30.511719 62.132812 28.414062 C 62.132812 21.847656 59.964844 15.292969 51.714844 15.292969 C 49.875 15.292969 46.296875 15.554688 43.726562 19.140625 C 41.957031 21.71875 41.417969 25.300781 41.417969 28.488281 C 41.417969 31.929688 42.027344 35.65625 43.917969 38.089844 C 45.273438 39.777344 47.910156 41.539062 51.765625 41.539062 C 54.824219 41.539062 57.792969 40.328125 59.632812 37.882812 Z M 64.097656 41.609375 C 59.964844 46.140625 54.894531 46.546875 51.644531 46.546875 C 48.121094 46.546875 43.242188 46.082031 39.386719 41.816406 C 35.199219 37.214844 35.0625 30.980469 35.0625 28.488281 C 35.0625 25.238281 35.390625 19.546875 39.246094 15.148438 C 43.449219 10.488281 49.074219 10.078125 51.976562 10.078125 C 61.925781 10.078125 68.558594 16.441406 68.558594 28.007812 C 68.558594 31.054688 68.230469 37.007812 64.097656 41.609375 "/>
<path style=" stroke:none;fill-rule:nonzero;fill:rgb(10.725403%,17.240906%,31.036377%);fill-opacity:1;" d="M 78.492188 16.777344 C 79.777344 12.917969 83.652344 10.414062 87.644531 10.414062 C 88.375 10.414062 91.359375 10.414062 91.359375 13.460938 C 91.359375 15.832031 89.46875 16.238281 88.511719 16.371094 C 86.828125 16.636719 85.054688 16.910156 83.234375 18.0625 C 78.769531 21.175781 78.769531 25.910156 78.769531 29.972656 L 78.769531 43.433594 C 78.769531 44.523438 78.5625 46.273438 75.660156 46.273438 C 72.882812 46.273438 72.605469 44.378906 72.605469 43.433594 L 72.605469 13.257812 C 72.605469 12.441406 72.882812 10.414062 75.59375 10.414062 C 78.230469 10.414062 78.492188 12.441406 78.492188 13.257812 L 78.492188 16.777344 "/>
<path style=" stroke:none;fill-rule:nonzero;fill:rgb(10.725403%,17.240906%,31.036377%);fill-opacity:1;" d="M 100.21875 16.097656 L 96.621094 16.097656 C 95.875 16.097656 94.050781 15.832031 94.050781 13.460938 C 94.050781 11.027344 95.875 10.824219 96.621094 10.824219 L 100.285156 10.824219 L 100.285156 2.902344 C 100.285156 2.027344 100.546875 0 103.324219 0 C 106.242188 0 106.433594 1.953125 106.433594 2.902344 L 106.433594 10.824219 L 110.636719 10.824219 C 111.453125 10.824219 113.207031 11.027344 113.207031 13.460938 C 113.207031 15.832031 111.382812 16.097656 110.636719 16.097656 L 106.433594 16.097656 L 106.433594 33.28125 C 106.433594 37.34375 106.503906 37.824219 106.710938 38.628906 C 107.179688 40.59375 108.464844 40.929688 110.308594 41.070312 C 111.921875 41.132812 113.625 41.273438 113.625 43.636719 C 113.625 46.007812 111.453125 46.273438 109.628906 46.273438 C 100.21875 46.273438 100.21875 41.203125 100.21875 35.929688 L 100.21875 16.097656 "/>
<path style=" stroke:none;fill-rule:nonzero;fill:rgb(10.725403%,17.240906%,31.036377%);fill-opacity:1;" d="M 140.886719 24.964844 C 140.628906 20.496094 138.179688 15.554688 131.753906 15.554688 C 130.328125 15.554688 127.550781 15.691406 125.1875 17.785156 C 122.480469 20.160156 121.871094 23.40625 121.523438 24.964844 Z M 121.472656 30.035156 C 121.59375 33.078125 122.273438 35.785156 124.113281 38.027344 C 126.40625 40.867188 129.183594 41.335938 131.890625 41.335938 C 137.242188 41.335938 139.132812 38.566406 140.347656 36.671875 C 141.425781 34.839844 141.773438 34.167969 143.265625 34.167969 C 144.742188 34.167969 146.773438 35.042969 146.773438 37.007812 C 146.773438 37.28125 146.773438 37.476562 146.707031 37.679688 C 146.445312 38.972656 145.28125 40.460938 144.550781 41.273438 C 139.882812 46.546875 133.785156 46.546875 131.890625 46.546875 C 127.480469 46.546875 123.019531 45.671875 119.5625 41.8125 C 116.523438 38.363281 115.097656 33.484375 115.097656 28.617188 C 115.097656 20.085938 119.703125 10.140625 131.683594 10.140625 C 133.175781 10.140625 134.671875 10.28125 136.078125 10.617188 C 139.132812 11.359375 141.773438 12.847656 143.875 15.6875 C 146.097656 18.804688 147.261719 23.203125 147.261719 26.988281 C 147.261719 29.832031 145.089844 30.035156 144.203125 30.035156 L 121.472656 30.035156 "/>
<g clip-path="url(#clip1)" clip-rule="nonzero">
<path style=" stroke:none;fill-rule:nonzero;fill:rgb(10.725403%,17.240906%,31.036377%);fill-opacity:1;" d="M 157.542969 16.777344 C 158.84375 12.917969 162.699219 10.414062 166.691406 10.414062 C 167.421875 10.414062 170.410156 10.414062 170.410156 13.460938 C 170.410156 15.832031 168.515625 16.238281 167.5625 16.371094 C 165.875 16.636719 164.121094 16.910156 162.28125 18.0625 C 157.816406 21.175781 157.816406 25.910156 157.816406 29.972656 L 157.816406 43.433594 C 157.816406 44.523438 157.609375 46.273438 154.710938 46.273438 C 151.933594 46.273438 151.652344 44.378906 151.652344 43.433594 L 151.652344 13.257812 C 151.652344 12.441406 151.933594 10.414062 154.640625 10.414062 C 157.28125 10.414062 157.539062 12.441406 157.539062 13.257812 L 157.539062 16.777344 "/>
</g>
</g>
</svg>

<svg xmlns="http://www.w3.org/2000/svg" width="227.213" height="59pt" viewBox="0 0 170.41 59"><defs><clipPath id="a"><path d="M151 10h19.41v37H151Zm0 0"/></clipPath></defs><path d="M15.977 15.293c-6.372 0-9.813 4.867-9.813 12.645 0 7.847 3.25 13.601 9.742 13.601 3.578 0 5.887-1.82 7.172-3.582 1.895-2.578 2.313-6.363 2.313-9.543 0-3.582-.282-13.121-9.414-13.121M0 13.461c0-.875.277-3.047 3.11-3.047.277 0 .953 0 1.632.34 1.543.742 1.543 2.035 1.543 4.059 2.711-3.247 6.098-4.735 10.438-4.735 8.668 0 15.09 6.629 15.09 18.203 0 8.39-3.665 18.266-14.344 18.266-5.625 0-8.266-2.227-11.184-4.805v14.145C6.285 56.77 6.027 59 3.11 59c-.539 0-1.078-.133-1.546-.336C.206 57.922 0 56.902 0 55.887zM59.633 37.883c2.363-3.043 2.5-7.371 2.5-9.469 0-6.566-2.168-13.121-10.418-13.121-1.84 0-5.418.262-7.988 3.848-1.77 2.578-2.309 6.16-2.309 9.347 0 3.442.61 7.168 2.5 9.602 1.355 1.687 3.992 3.45 7.848 3.45 3.058 0 6.027-1.212 7.867-3.657m4.465 3.726c-4.133 4.532-9.203 4.938-12.453 4.938-3.524 0-8.403-.465-12.258-4.73-4.188-4.602-4.324-10.837-4.324-13.329 0-3.25.328-8.941 4.183-13.34 4.203-4.66 9.828-5.07 12.73-5.07 9.95 0 16.583 6.363 16.583 17.93 0 3.047-.329 9-4.461 13.601M78.492 16.777c1.285-3.859 5.16-6.363 9.153-6.363.73 0 3.714 0 3.714 3.047 0 2.371-1.89 2.777-2.847 2.91-1.684.266-3.457.54-5.278 1.692-4.464 3.113-4.464 7.847-4.464 11.91v13.46c0 1.09-.207 2.84-3.11 2.84-2.777 0-3.055-1.894-3.055-2.84V13.259c0-.817.278-2.844 2.989-2.844 2.636 0 2.898 2.027 2.898 2.844zM100.219 16.098H96.62c-.746 0-2.57-.266-2.57-2.637 0-2.434 1.824-2.637 2.57-2.637h3.664V2.902c0-.875.262-2.902 3.04-2.902 2.917 0 3.109 1.953 3.109 2.902v7.922h4.203c.816 0 2.57.203 2.57 2.637 0 2.371-1.824 2.637-2.57 2.637h-4.203V33.28c0 4.063.07 4.543.277 5.348.469 1.965 1.754 2.3 3.598 2.441 1.613.063 3.316.203 3.316 2.567 0 2.37-2.172 2.636-3.996 2.636-9.41 0-9.41-5.07-9.41-10.343zM140.887 24.965c-.258-4.469-2.707-9.41-9.133-9.41-1.426 0-4.203.136-6.566 2.23-2.708 2.375-3.317 5.621-3.665 7.18Zm-19.414 5.07c.12 3.043.8 5.75 2.64 7.992 2.293 2.84 5.07 3.309 7.778 3.309 5.351 0 7.242-2.77 8.457-4.664 1.078-1.832 1.425-2.504 2.918-2.504 1.476 0 3.507.875 3.507 2.84 0 .273 0 .469-.066.672-.262 1.293-1.426 2.78-2.156 3.593-4.668 5.274-10.766 5.274-12.66 5.274-4.41 0-8.871-.875-12.328-4.734-3.04-3.45-4.465-8.329-4.465-13.196 0-8.531 4.605-18.476 16.586-18.476 1.492 0 2.988.14 4.394.476 3.055.742 5.695 2.23 7.797 5.07 2.223 3.118 3.387 7.516 3.387 11.301 0 2.844-2.172 3.047-3.059 3.047z" style="stroke:none;fill-rule:nonzero;fill:#1b2c4f;fill-opacity:1"/><g clip-path="url(#a)"><path d="M157.543 16.777c1.3-3.859 5.156-6.363 9.148-6.363.73 0 3.72 0 3.72 3.047 0 2.371-1.895 2.777-2.849 2.91-1.687.266-3.44.54-5.28 1.692-4.466 3.113-4.466 7.847-4.466 11.91v13.46c0 1.09-.207 2.84-3.105 2.84-2.777 0-3.059-1.894-3.059-2.84V13.259c0-.817.282-2.844 2.989-2.844 2.64 0 2.898 2.027 2.898 2.844v3.52" style="stroke:none;fill-rule:nonzero;fill:#1b2c4f;fill-opacity:1"/></g></svg>
